X: 131
T:Schottisch fran Havero
M:4/4
L:1/8
R:Schottische
Z:Steve Mansfield
K:Dm
D2DE FGFE | D2A2 A4 | d^cde f2f2 | efe^c A2A2 | D2DE FGFE |
D2A2 A4 | d^cde f2f2 |1 e2e^c d4 :|2 e2e^c d3f |: a2a^ga2a2 |
fgfe f2f2 | e2e^c A2A2 | FGFE (3EFE D2 | a2a^ga2a2 |
fgfe f2f2 | e2e^c Acec |1 d2d2d3f :|2 d2d2d4 ||

